X:22
T:GB/7b/22 The Rambling Sailor
%%VWML:GB-7b-22-0
F:http://www.vwml.org/record/GB/7b/22
C:Transcribed by Simon Furey and Lewis Jones
L:1/4
M:4/4
I:linebreak $
K:Fmix
c | F c B/A/ G | F F e f | B e/d/ c/B/ G | B3/2 A/ F :| B | c d/e/ f3/2 B/ |$ c/d/e/c/ f3/2 f/ | e d c B | e f !fermata!c c | F c B/A/ G | F F e f | B e/d/ c/B/ G | B3/2 A/ F |]

